X:1
T:Abschied
T:Abschied
T:Dem Akademischen Liederkranz München zugeeignet
T:Max Reger
T:Eichendorff
C:Max Reger
Z:Eichendorff
%%score [ ( 1 2 ) ( 3 4 ) ( 5 6 ) ( 7 8 ) ]
L:1/8
Q:1/8=80
M:6/8
K:F
V:1 treble-8 nm="Tenor 1" snm="T1."
V:2 treble-8 
V:3 treble-8 nm="T2"
V:4 treble-8 
V:5 bass nm="B1"
V:6 bass 
V:7 bass nm="B2"
V:8 bass 
V:1
!pp!"^Sehr ruhig""^espressivo" A2 A A2 A | c2 ^c d!<(! c d!<)! |"^poco" (fe) d!>(! =G2 ^G!>)! | %3
w: A- bend- lich schon|rauscht der Wald aus den|tie- * fen Grün- den,|
!pp!!<(! (Ac) B (Be)!<)! d | (A=B) ^c d d e |"^poco a poco rit." (eg)!>(! f e2!>)!!pp! =c | %6
w: a- * bend- lich * schon|rauscht * der Wald aus den|tie- * fen Grün- den,|
!ppp!"^a tempo" a2 a a2 a |"^poco a poco" (a>=f) g"^cresc." d d e | ^f2 f (f2 ^g) | %9
w: dro- ben wird der|Herr * nun bald an die|Ster- ne zun- *|
 ^g2 ^a!f! (=bag | ^f^e) ^d =d ^c d |!>(! (^d^g)"^poco rit." ^c (c=d) ^d!>)! | %12
w: den, der Herr _ _|_ _ nun bald an die|Ster- * ne zün- * den,|
"^sempre espressivo"!pp!"^a tempo" e2 e e2 e | _e2 e e2 e | _e2 e d2 d | %15
w: wie so stil- le,|wie so stil- le,|wie so stil- le,|
[M:9/8]!<(! (d_d)!<)! d d2 d!>(! d2 =c!>)! |[M:6/8]!pp!!>(! a2 g (ge)"^poco rit." f!>)! | %17
w: stil- * le in den Schlün- den,|a- bend- lich * nur|
 (b3!>(! a2) g!>)! |!pp! !fermata!a6 ||!pp!"^espressivo""^a tempo" (A3 A2) A | %20
w: rauscht * der|Wald.|Al- * les,|
!<(! c2 ^c (dc)!<)! d | (fe)!>(! d (=G2 ^G)!>)! |!<(! (Ac) B (Be) d!<)! | %23
w: al- les geht * zu|sei- * ner Ruh, _|Walt _ und Welt _ ver-|
"^molto" (A!>(!=B) ^c!>)!!p! (cd) e |"^poco a poco rit." (eg) f!>(! e2 d | %25
w: sau- * sen, al- * les|geht * zu sei- ner|
"^a tempo" c3!>)!!pp! _d2 c | =B2 c"^cresc." _e2 =d | d3!mp!!<(! _e2 e | f2 f!<)! (a2 g) | %29
w: Ruh, schau- dernd|hört der Wan- drer|zu, sehnt sich|recht nach Hau- *|
!>(! d3!>)!!p!!<(! (f=e) f | (a_a) g!<)! (gf3/2) e/ | %31
w: se, hier * in|Wal- * des grü- * ner|
"^molto espressivo"!>(! (a_e) d!>)!!<(! (gf3/2) =e/ |[M:9/8] (ag3/2) ^f/!<)! (=b_b) a (a!>(!_a) g | %33
w: Klau- * se, Herz, * geh,|Herz, * geh end- * lich, end- * lich|
[M:6/8] g2"^poco rit." c ((_e3 | _e2) =e)!>)!!pp! (f_g) _a |"^a tempo" =a2 =g (ge) f | %36
w: auch zur Ruh,|* * Herz, * geh|end- lich, end- * lich|
"^rit." (b3!>(! a2) g!>)! |!ppp! !fermata!c6 |] %38
w: auch * zur|Ruh!|
V:2
 x6 | x6 | x6 | x6 | x6 | x6 | x3 ^f2 f | (^f>d) e =B B ^c | ^c2 x4 | x6 | x6 | x6 | x6 | x6 | x6 | %15
[M:9/8] x9 |[M:6/8] c2 ^c =d2 d | (e3 e2) e | f6 || x6 | x6 | x6 | x6 | x6 | x6 | x6 | x6 | x6 | %28
 x6 | x6 | x6 | e x5 |[M:9/8] x9 |[M:6/8] x6 | x5 f | f2 ^c =d2 d | (e3 e2) e | x6 |] %38
V:3
!pp!"^espressivo" F2 F F2 F | (AA) A A!<(! A A!<)! |"^poco" B2 B!>(! F2 E!>)! | %3
w: A- bend- lich schon|rauscht * der Wald aus den|tie- fen Grün- den,|
!pp!!<(! F2 F (FB)!<)! B | (E^G) =G G ^G G |"^poco a poco rit." A2!>(! (A/_B/) =B2!>)!!pp! =G | %6
w: a- bend- lich * schon|rauscht * der Wald aus den|tie- fen * Grün- den,|
 z6 |!ppp! A2 A A2 A | A2 ^c ^d2 d | ^e2 =e!f! (^d3 | B2) =B B B B | %11
w: |dro- ben wird der|Herr, der Herr, der|Herr, der Herr|_ nun bald an die|
!>(! =B2"^poco rit." ^A (AB) B!>)! |!pp! =c2 c c2 c | c2 c c2 _c | _c2 c c2 c | %15
w: Ster- ne zün- * den,|wie so stil- le,|wie so stil- le,|wie so stil- le,|
[M:9/8]!<(! B2!<)! B B2 B!>(! B2 B!>)! |[M:6/8]!pp!!>(! A2 A B2"^poco rit." B!>)! | %17
w: stil- le in den Schlün- den,|a- bend- lich nur|
 (d3!>(! d2) d!>)! |!pp! !fermata!c6 ||!pp!"^espressivo""^a tempo" (F3 F2) F |!<(! AA A A2!<)! =c | %21
w: rauscht * der|Wald.|Al- * les,|al- * les geht zu|
 B2!>(! B (F2 E)!>)! |!<(! F2 F (FB) B!<)! |"^molto" (E!>(!^G) =G!>)!!p! (G^G) G | %24
w: sei- ner Ruh, _|Walt und Welt _ ver-|sau- * sen, al- * les|
"^poco a poco rit." A2 (A/_B/)!>(! ((=Bc)) B |"^a tempo" G3!>)!!pp! _d2 c | =B2 c"^cresc." _e2 =d | %27
w: geht zu * sei- * ner|Ruh, schau- dernd|hört der Wan- drer|
 d3!mp!!<(! _B2 B | c2 c!<)! (_e2 d) |!>(! A3!>)!!p!!<(! d2 c | =B2 B!<)! ^c2 c | %31
w: zu, sehnt sich|recht nach Hau- *|se, hier in|Wal- des grü- ner|
"^molto espressivo"!>(! =c2 =B!>)!!<(! (d^c) c |[M:9/8] (e^d) d!<)! =d2 =c =B2!>(! B | %33
w: Klau- se, Herz, * geh,|Herz, * geh end- lich, end- lich|
[M:6/8] =B2"^poco rit." G (c3 | c3)!>)!!pp! (_c_d/d/) c |"^a tempo" =c2 =A B2 B | %36
w: auch zur Ruh,|* Herz, * * geh|end- lich, end- lich|
"^rit." (_d3!>(! d2) d!>)! |!ppp! !fermata!A6 |] %38
w: auch * zur|Ruh!|
V:4
 x6 | (F_G) F x3 | x6 | x6 | x6 | x6 | x6 | x6 | x2 A =B2 B | ^c2 c (=B3 | B2) x4 | x6 | x6 | x6 | %14
 x6 |[M:9/8] x9 |[M:6/8] x6 | (B3 B2) B | A6 || x6 | (F_G) F x2 A | x6 | x6 | x6 | x4 A x | x6 | %26
 x6 | x6 | x3 (c2 B) | x6 | x6 | x6 |[M:9/8] x9 |[M:6/8] x6 | x3 (_A-A/_B/)_c | x6 | (B3 B2) B | %37
 x6 |] %38
V:5
!pp!"^espressivo" (C,=B,,) C, (_D,C,) D, | (=D,_E,) E, D,!<(! D, D,!<)! | %2
w: A- * bend- lich * schon|rauscht * der Wald aus den|
"^poco" (A,G,) F,!>(! (F,>D,) =E,!>)! |!pp!!<(! (C,E,) D, (D,G,)!<)! F, | %4
w: tie- * fen Grün- * den,|a- * bend- lich * schon|
 (^C,D,) E, E, (F,/E,/) D, |"^poco a poco rit." E,2!>(! F, (G,>F,)!>)!!pp! E, | z6 | z6 | %8
w: rauscht * der Wald aus * den|tie- fen Grün- * den,|||
!ppp! (^F,^E,) ^D, (^G,F,) E, | (^A,^G,) ^^F,!f! (G,^F,^E, | ^A,^G,) ^F, ^E, E, E, | %11
w: dro- * ben wird * der|Herr, * der Herr _ _|_ _ nun bald an die|
!>(! (^F,=F,)"^poco rit." =E, (E,F,) F,!>)! | z6 |!pp! (G,_G,) F, (F,G,) F, | z3 (G,F,) G, | %15
w: Ster- * ne zün- * den,||wie * so stil- * le,|wie * so|
[M:9/8]!<(! E,2!<)! E, E,2 E,!>(! E,2 E,!>)! |[M:6/8]!pp!!>(! (F,F,) E, (F,G,)"^poco rit." F,!>)! | %17
w: stil- le in den Schlün- den,|a- * bend- lich * nur|
 (G,3!>(! G,2) G,!>)! |!pp! !fermata!F,6 ||!pp!"^espressivo""^a tempo" (C,=B,,) C, (_D,C,) D, | %20
w: rauscht * der|Wald.|Al- * les, al- * les,|
!<(! (=D,_E,) E, D,2!<)! D, | (A,G,)!>(! F, (F,>_D,=E,)!>)! |!<(! (C,E,) D, (D,G,) F,!<)! | %23
w: al- * les geht zu|sei- * ner Ruh, _ _|Walt _ und Welt _ ver-|
"^molto" (^C,!>(!D,) E,!>)!!p! (E,F,/E,/) D, |"^poco a poco rit." E,2 F,!>(! ((G,^F,)) =F, | %25
w: sau- * sen, al- * * les|geht zu sei- * ner|
"^a tempo" E,3!>)!!pp! _D,2 C, | =B,,2 C,"^cresc." _E,2 =D, | D,3!mp!!<(! G,2 G, | %28
w: Ruh, schau- dernd|hört der Wan- drer|zu, sehnt sich|
 A,2 A,!<)! (^F,2 G,) |!>(! ^F,3!>)!!p!!<(! ^G,2 A, | =F,2 F,!<)! B,2 B, | %31
w: recht nach Hau- *|se, hier in|Wal- des grü- ner|
"^molto espressivo"!>(! A,2 G,!>)!!<(! (B,A,) A, |[M:9/8] (C=B,) B,!<)! =F,2 F, F,2!>(! F, | %33
w: Klau- se, Herz, * geh,|Herz, * geh end- lich, end- lich|
[M:6/8] (F,F,)"^poco rit." E, (^F,3 | ^F,3)!>)!!pp! (=F,_E,) F, |"^a tempo" (F,F,) =E, (F,G,) F, | %36
w: auch * zur Ruh,|* Herz, * geh|end- * lich, end- * lich|
"^rit." (G,3!>(! G,2) G,!>)! |!ppp! !fermata!F,6 |] %38
w: auch * zur|Ruh!|
V:6
 x6 | x6 | x6 | x6 | x6 | x6 | x6 | x6 | x6 | x6 | x6 | x =D, x4 | x6 | x6 | x6 |[M:9/8] x9 | %16
[M:6/8] x D, x4 | (E,3 E,2) E, | x6 || x6 | x6 | x6 | x6 | x6 | x6 | x6 | x6 | x6 | x6 | x6 | x6 | %31
 x6 |[M:9/8] x9 |[M:6/8] x =D, x4 | x6 | x =D, x4 | (_E,3 E,2) E, | x6 |] %38
V:7
!pp!"^espressivo" F,,2 F,, F,,2 F,, | F,,2 F,, ^F,,!<(! F,, F,,!<)! | %2
w: A- bend- lich schon|rauscht der Wald aus den|
"^poco" D,2 G,,!>(! C,2 C,!>)! |!pp!!<(! F,,2 F,, G,,2!<)! G,, | A,,2 A,, B,, B,, =B,, | %5
w: tie- fen Grün- den,|a- bend- lich schon|rauscht der Wald aus den|
"^poco a poco rit." (=C,^C,)!>(! D, G,,2!>)!!pp! =C, | z6 | z6 | z6 | z3!f! ^G,,2 G,, | %10
w: tie- * fen Grün- den,||||dro- ben|
 ^D,2 ^G,, G,,2 =G,, |!>(! ^F,,3"^poco rit." G,,3!>)! | z3!pp! C,2 C, | C,2 C, z3 | %14
w: wird der Herr an-|zün- den,|wie so|stil- le,|
 _C,2 C, C,2 C, |[M:9/8] z3!<(! (G,,^F,,)!<)! F,,!>(! (G,,F,,) F,,!>)! | %16
w: wie so stil- le,|in * den Schlün- * den,|
[M:6/8]!pp!!>(! C,2 ^C, D,2"^poco rit." D,!>)! | (_D,3!>(! D,2) D,!>)! |!pp! !fermata!C,6 || %19
w: a- bend- lich nur|rauscht * der|Wald.|
!pp!"^espressivo""^a tempo" (F,,3 F,,2) F,, |!<(! F,,2 F,, ^F,,2!<)! F,, | D,2!>(! G,, C,3!>)! | %22
w: Al- * les,|al- les geht zu|sei- ner Ruh,|
!<(! F,,2 F,, G,,2 G,,!<)! |"^molto" A,,2!>(! A,,!>)!!p! B,,2 =B,, | %24
w: Walt und Welt ver-|sau- sen, al- les|
"^poco a poco rit." (=C,^C,) D,!>(! G,,2 G,, |"^a tempo" =C,3!>)!!pp! _D,2 C, | %26
w: geht * zu sei- ner|Ruh, schau- dernd|
 =B,,2 C,"^cresc." _E,2 =D, | D,3!mp!!<(! D,2 D, | D,2 D,!<)! (D,3- | %29
w: hört der Wan- drer|zu, sehnt sich|recht nach Hau-|
!>(! D, ^C,)=C,!>)!!p!!<(! =B,,2 C, | D,2 D,!<)! (E,A,) =G, | %31
w: * se, * hier in|Wal- des grü- * ner|
"^molto espressivo"!>(! ^F,2 =F,!>)!!<(! (E,A,,) G, | %32
w: Klau- se, Herz, * geh,|
[M:9/8] (^F,=B,,) A,,!<)! ^G,,2 A,, D,2!>(! _D, |[M:6/8] C,2"^poco rit." _B,, A,,2 _A,, | %34
w: Herz, * geh end- lich, end- lich|auch zur Ruh, zur|
 _A,,3!>)!!pp! _D,2 D, |"^a tempo" C,2 ^C, D,2 D, |"^rit." (_D,3!>(! D,2) D,!>)! | %37
w: Ruh, Herz, geh|end- lich, end- lich|auch * zur|
!ppp! !fermata!C,6 |] %38
w: Ruh!|
V:8
 x6 | x6 | G,,2 x4 | x6 | x6 | x6 | x6 | x6 | x6 | x6 | ^G,,2 x4 | x6 | x3 A,,2 A,, | A,,2 A,, x3 | %14
 _A,,2 A,, A,,2 A,, |[M:9/8] x9 |[M:6/8] =F,,2 F,, F,,2 F,, | (F,,3 F,,2) F,, | F,,6 || x6 | x6 | %21
 G,,2 x4 | x6 | x6 | x6 | x6 | x6 | x6 | x6 | x6 | x6 | x6 |[M:9/8] x9 |[M:6/8] x6 | x6 | %35
 =F,,2 F,, F,,2 F,, | (F,,3 F,,2) F,, | F,,6 |] %38

